drawings/svg/test.svg

<?xml version="1.0" encoding="UTF-8" standalone="no"?>
<!-- Created with Inkscape (http://www.inkscape.org/) -->

<svg
   xmlns:dc="http://purl.org/dc/elements/1.1/"
   xmlns:cc="http://creativecommons.org/ns#"
   xmlns:rdf="http://www.w3.org/1999/02/22-rdf-syntax-ns#"
   xmlns:svg="http://www.w3.org/2000/svg"
   xmlns="http://www.w3.org/2000/svg"
   xmlns:sodipodi="http://sodipodi.sourceforge.net/DTD/sodipodi-0.dtd"
   xmlns:inkscape="http://www.inkscape.org/namespaces/inkscape"
   width="1052.3622"
   height="744.09448"
   id="svg3902"
   version="1.1"
   inkscape:version="0.48.3.1 r9886"
   sodipodi:docname="test.mzkdrn">
  <sodipodi:namedview
     id="base"
     pagecolor="#ffffff"
     bordercolor="#666666"
     borderopacity="1.0"
     inkscape:pageopacity="0.0"
     inkscape:pageshadow="2"
     inkscape:zoom="0.50373353"
     inkscape:cx="375"
     inkscape:cy="520.43598"
     inkscape:document-units="px"
     inkscape:current-layer="svg3902"
     showgrid="false"
     inkscape:window-width="536"
     inkscape:window-height="422"
     inkscape:window-x="441"
     inkscape:window-y="377"
     inkscape:window-maximized="0" />
  <defs
     id="defs3904" />
  <metadata
     id="metadata3907">
    <rdf:RDF>
      <cc:Work
         rdf:about="">
        <dc:format>image/svg+xml</dc:format>
        <dc:type
           rdf:resource="http://purl.org/dc/dcmitype/StillImage" />
        <dc:title></dc:title>
      </cc:Work>
    </rdf:RDF>
  </metadata>
  <path
     transform="matrix(1.000000,0.000000,0.000000,1.000000,0.000000,0.000000)"
     inkscape:connector-curvature="0"
     id="path3910"
     d="M 71.428571,215.52305 337.14286,166.95163"
     style="stroke-linejoin:miter;opacity:1;stroke-opacity:1;stroke:#000000;stroke-linecap:butt;stroke-width:5px;fill:none"
     color="#00000000" />
  <path
     transform="matrix(1.000000,0.000000,0.000000,1.000000,0.000000,0.000000)"
     inkscape:connector-curvature="0"
     id="path3912"
     d="m 211.42857,189.80877 5.71429,302.85714"
     style="stroke-linejoin:miter;opacity:1;stroke-opacity:1;stroke:#000000;stroke-linecap:butt;stroke-width:5px;fill:none"
     color="#00000000" />
  <path
     transform="matrix(1.000000,0.000000,0.000000,1.000000,0.000000,0.000000)"
     inkscape:connector-curvature="0"
     id="path3914"
     d="m 334.28571,329.80877 0,162.85714"
     style="stroke-linejoin:miter;opacity:1;stroke-opacity:1;stroke:#000000;stroke-linecap:butt;stroke-width:5px;fill:none"
     color="#00000000" />
  <path
     transform="matrix(1.000000,0.000000,0.000000,1.000000,0.000000,0.000000)"
     inkscape:connector-curvature="0"
     id="path3916"
     d="M 442.85714,495.52305 334.28571,489.80877"
     style="stroke-linejoin:miter;opacity:1;stroke-opacity:1;stroke:#000000;stroke-linecap:butt;stroke-width:5px;fill:none"
     color="#00000000" />
  <path
     transform="matrix(1.000000,0.000000,0.000000,1.000000,0.000000,0.000000)"
     inkscape:connector-curvature="0"
     id="path3918"
     d="m 334.28571,412.66591 94.28572,-2.85714"
     style="stroke-linejoin:miter;opacity:1;stroke-opacity:1;stroke:#000000;stroke-linecap:butt;stroke-width:5px;fill:none"
     color="#00000000" />
  <path
     transform="matrix(1.000000,0.000000,0.000000,1.000000,0.000000,0.000000)"
     inkscape:connector-curvature="0"
     id="path3920"
     d="m 337.14286,332.66591 94.28571,0"
     style="stroke-linejoin:miter;opacity:1;stroke-opacity:1;stroke:#000000;stroke-linecap:butt;stroke-width:5px;fill:none"
     color="#00000000" />
  <path
     transform="matrix(1.000000,0.000000,0.000000,1.000000,0.000000,0.000000)"
     sodipodi:nodetypes="csccc"
     inkscape:connector-curvature="0"
     id="path3922"
     d="m 636.90161,338.62144 c -4.63921,0.53011 -53.7409,-3.74936 -71.52329,0.99382 -29.81062,7.95152 -38.55149,24.52275 -33.94975,58.76494 3.70854,45.90698 108.3543,1.72305 108.57143,45.71428 -3.66548,52.96428 -7.71922,63.14672 -100,60"
     style="stroke-linejoin:miter;opacity:1;stroke-opacity:1;stroke:#000000;stroke-linecap:butt;stroke-width:5px;fill:none"
     color="#00000000" />
  <path
     transform="matrix(1.000000,0.000000,0.000000,1.000000,0.000000,0.000000)"
     inkscape:connector-curvature="0"
     id="path3924"
     d="m 708.57143,338.09448 128.57143,2.85715"
     style="stroke-linejoin:miter;opacity:1;stroke-opacity:1;stroke:#000000;stroke-linecap:butt;stroke-width:5px;fill:none"
     color="#00000000" />
  <path
     transform="matrix(1.000000,0.000000,0.000000,1.000000,0.000000,0.000000)"
     inkscape:connector-curvature="0"
     id="path3926"
     d="m 768.57143,340.95163 0,165.71428"
     style="stroke-linejoin:miter;opacity:1;stroke-opacity:1;stroke:#000000;stroke-linecap:butt;stroke-width:5px;fill:none"
     color="#00000000" />
</svg>

<!-- Created with Inkscape (http://www.inkscape.org/) --><svg xmlns:dc="http://purl.org/dc/elements/1.1/" xmlns:cc="http://creativecommons.org/ns#" xmlns:rdf="http://www.w3.org/1999/02/22-rdf-syntax-ns#" xmlns:svg="http://www.w3.org/2000/svg" xmlns="http://www.w3.org/2000/svg" xmlns:sodipodi="http://sodipodi.sourceforge.net/DTD/sodipodi-0.dtd" xmlns:inkscape="http://www.inkscape.org/namespaces/inkscape" width="1052.3622" height="744.09448" id="svg3902" version="1.1" inkscape:version="0.48.3.1 r9886" sodipodi:docname="test.mzkdrn">
  <sodipodi:namedview id="base" pagecolor="#ffffff" bordercolor="#666666" borderopacity="1.0" inkscape:pageopacity="0.0" inkscape:pageshadow="2" inkscape:zoom="0.50373353" inkscape:cx="375" inkscape:cy="520.43598" inkscape:document-units="px" inkscape:current-layer="svg3902" showgrid="false" inkscape:window-width="536" inkscape:window-height="422" inkscape:window-x="441" inkscape:window-y="377" inkscape:window-maximized="0"/>
  <defs id="defs3904"/>
  <metadata id="metadata3907">
    <rdf:RDF>
      <cc:Work rdf:about="">
        <dc:format>image/svg+xml</dc:format>
        <dc:type rdf:resource="http://purl.org/dc/dcmitype/StillImage"/>
        <dc:title/>
      </cc:Work>
    </rdf:RDF>
  </metadata>
  <path inkscape:connector-curvature="0" id="path3910" d="M71.428571 215.52305C71.428571 215.52305 337.14286 166.95163 337.14286 166.95163" style="stroke-linejoin:miter;opacity:1;stroke-opacity:1;stroke:#000000;stroke-linecap:butt;stroke-width:5px;fill:none" color="#00000000"/>
  <path inkscape:connector-curvature="0" id="path3912" d="M211.42857 189.80877C211.42857 189.80877 217.14286 492.66591 217.14286 492.66591" style="stroke-linejoin:miter;opacity:1;stroke-opacity:1;stroke:#000000;stroke-linecap:butt;stroke-width:5px;fill:none" color="#00000000"/>
  <path inkscape:connector-curvature="0" id="path3914" d="M334.28571 329.80877C334.28571 329.80877 334.28571 492.66591 334.28571 492.66591" style="stroke-linejoin:miter;opacity:1;stroke-opacity:1;stroke:#000000;stroke-linecap:butt;stroke-width:5px;fill:none" color="#00000000"/>
  <path inkscape:connector-curvature="0" id="path3916" d="M442.85714 495.52305C442.85714 495.52305 334.28571 489.80877 334.28571 489.80877" style="stroke-linejoin:miter;opacity:1;stroke-opacity:1;stroke:#000000;stroke-linecap:butt;stroke-width:5px;fill:none" color="#00000000"/>
  <path inkscape:connector-curvature="0" id="path3918" d="M334.28571 412.66591C334.28571 412.66591 428.57143 409.80877 428.57143 409.80877" style="stroke-linejoin:miter;opacity:1;stroke-opacity:1;stroke:#000000;stroke-linecap:butt;stroke-width:5px;fill:none" color="#00000000"/>
  <path inkscape:connector-curvature="0" id="path3920" d="M337.14286 332.66591C337.14286 332.66591 431.42857 332.66591 431.42857 332.66591" style="stroke-linejoin:miter;opacity:1;stroke-opacity:1;stroke:#000000;stroke-linecap:butt;stroke-width:5px;fill:none" color="#00000000"/>
  <path sodipodi:nodetypes="csccc" inkscape:connector-curvature="0" id="path3922" d="M636.90161 338.62144C632.2624 339.15155 583.16071 334.87208 565.37832 339.61526C535.5677 347.56678 526.82683 364.13801 531.42857 398.3802C535.13711 444.28718 639.78287 400.10325 640.0 444.09448C636.33452 497.05876 632.28078 507.2412 540.0 504.09448" style="stroke-linejoin:miter;opacity:1;stroke-opacity:1;stroke:#000000;stroke-linecap:butt;stroke-width:5px;fill:none" color="#00000000"/>
  <path inkscape:connector-curvature="0" id="path3924" d="M708.57143 338.09448C708.57143 338.09448 837.14286 340.95163 837.14286 340.95163" style="stroke-linejoin:miter;opacity:1;stroke-opacity:1;stroke:#000000;stroke-linecap:butt;stroke-width:5px;fill:none" color="#00000000"/>
  <path inkscape:connector-curvature="0" id="path3926" d="M768.57143 340.95163C768.57143 340.95163 768.57143 506.66591 768.57143 506.66591" style="stroke-linejoin:miter;opacity:1;stroke-opacity:1;stroke:#000000;stroke-linecap:butt;stroke-width:5px;fill:none" color="#00000000"/>
</svg>
